build/img/icon__childroom.svg

<svg width="36" height="36" viewBox="0 0 36 36" fill="none" xmlns="http://www.w3.org/2000/svg">
<g opacity="0.4" clip-path="url(#clip0)">
<path d="M36 6.10098C36 4.52389 34.7168 3.24068 33.1397 3.24068C31.5626 3.24068 30.2797 4.52389 30.2797 6.10098C30.2797 6.93731 30.6406 7.69097 31.2149 8.21447V8.97527C30.3558 8.82037 28.7216 8.37981 27.7954 7.19027C27.3513 6.61953 26.6446 6.30422 25.9069 6.34872C25.544 6.37014 25.1927 6.36108 24.8626 6.32153C24.5739 6.28609 24.31 6.49346 24.2754 6.78323C24.2408 7.07272 24.4473 7.33584 24.7371 7.37045C25.1293 7.41741 25.544 7.42867 25.9695 7.4034C26.3595 7.38033 26.7314 7.54321 26.9618 7.83929C28.1832 9.40841 30.266 9.90115 31.2149 10.0484V11.2689H4.79141V10.0484C5.74036 9.90115 7.82309 9.40841 9.04422 7.83929C9.27493 7.54321 9.64682 7.37923 10.0366 7.4034C11.943 7.51546 13.4572 6.90984 14.3009 5.69503C14.3124 5.67828 14.3212 5.66399 14.3311 5.64587C14.3564 5.6 14.9733 4.5162 16.6748 4.04818C17.5438 3.80923 18.4622 3.8095 19.3313 4.04818C21.0331 4.5162 21.6497 5.6 21.6733 5.6423C21.6829 5.6607 21.6936 5.67828 21.7054 5.69503C21.8425 5.89251 21.9985 6.07598 22.1693 6.24105C22.3789 6.44375 22.7134 6.43798 22.9161 6.22814C23.1188 6.0183 23.1133 5.68377 22.9032 5.48135C22.7873 5.36929 22.6807 5.24487 22.5862 5.11083C22.45 4.87765 21.617 3.58099 19.6114 3.02947C18.5592 2.74026 17.4471 2.74026 16.3949 3.02947C14.3893 3.58099 13.556 4.87737 13.4201 5.11083C12.9724 5.74364 12.0339 6.46407 10.0992 6.34872C9.36118 6.30532 8.65503 6.61953 8.21063 7.19027C7.28229 8.38284 5.6423 8.82284 4.7851 8.97637V8.21447C5.35941 7.69097 5.72031 6.93731 5.72031 6.10098C5.72031 4.52389 4.4371 3.24096 2.86029 3.24096C1.28293 3.24068 0 4.52389 0 6.10098C0 6.93731 0.360901 7.69097 0.935211 8.21447V31.4006C0.935211 32.4621 1.79874 33.3256 2.86029 33.3256C3.92157 33.3256 4.7851 32.4621 4.7851 31.4006V30.4008H31.2149V31.4006C31.2149 32.4621 32.0784 33.3256 33.14 33.3256C34.2013 33.3256 35.0648 32.4621 35.0648 31.4006V8.21447C35.6391 7.69097 36 6.93731 36 6.10098ZM3.72876 31.4006C3.72876 31.8796 3.33902 32.269 2.86029 32.269C2.38129 32.269 1.99182 31.8796 1.99182 31.4006V8.82586C2.26593 8.91348 2.55734 8.96099 2.86029 8.96099C3.16296 8.96099 3.45465 8.91348 3.72876 8.82586V31.4006ZM2.86029 7.90466C1.86548 7.90466 1.05661 7.09551 1.05661 6.10098C1.05661 5.10644 1.86575 4.29729 2.86029 4.29729C3.85483 4.29729 4.66397 5.10644 4.66397 6.10098C4.66397 7.09551 3.85483 7.90466 2.86029 7.90466ZM25.7412 12.3253H27.0299V26.268H25.7412V12.3253ZM22.4981 12.3253H24.6846V22.1256H22.4981V12.3253ZM22.4981 23.1822H24.6846V26.268H22.4981V23.1822ZM20.1528 12.3253H21.4415V26.268H20.1528V12.3253ZM16.9099 12.3253H19.0964V22.1256H16.9099V12.3253ZM16.9099 23.1822H19.0964V26.268H16.9099V23.1822ZM11.3217 12.3253H13.5082V18.6375C13.5082 18.9294 13.7447 19.1659 14.0364 19.1659C14.3284 19.1659 14.5648 18.9294 14.5648 18.6375V12.3253H15.8535V26.268H14.5648V21.0322C14.5648 20.7405 14.3284 20.5041 14.0364 20.5041C13.7447 20.5041 13.5082 20.7405 13.5082 21.0322V22.1256H11.3217V12.3253ZM11.3217 23.1822H13.5082V26.268H11.3217V23.1822ZM8.97638 12.3253H10.2651V26.268H8.97638V12.3253ZM4.7851 12.3253H7.92004V22.1256H4.7851V12.3253ZM7.92004 23.1822V26.268H4.79141V23.1822H7.92004ZM31.2149 29.3445H4.79141V27.3246H31.2149V29.3445ZM31.2149 26.268H28.0863V23.1822H31.2149V26.268ZM31.2149 22.1256H28.0863V12.3253H31.2149V22.1256ZM33.1397 4.29729C34.1345 4.29729 34.9434 5.10644 34.9434 6.10098C34.9434 7.09551 34.1345 7.90438 33.1397 7.90438C32.1452 7.90438 31.336 7.09524 31.336 6.10098C31.336 5.10644 32.1452 4.29729 33.1397 4.29729ZM34.0085 31.4006C34.0085 31.8796 33.6187 32.269 33.1397 32.269C32.661 32.269 32.2712 31.8796 32.2712 31.4006V8.82586C32.5453 8.91348 32.837 8.96099 33.1397 8.96099C33.4427 8.96099 33.7343 8.91348 34.0085 8.82586V31.4006Z" fill="#333333"/>
</g>
<defs>
<clipPath id="clip0">
<rect width="36" height="36" fill="white"/>
</clipPath>
</defs>
</svg>

<svg width="36" height="36" fill="none" xmlns="http://www.w3.org/2000/svg"><g opacity=".4" clip-path="url(#clip0)"><path d="M36 6.101a2.864 2.864 0 00-2.86-2.86 2.863 2.863 0 00-2.86 2.86c0 .836.36 1.59.935 2.113v.761c-.86-.155-2.493-.595-3.42-1.785a2.219 2.219 0 00-1.888-.841 5.895 5.895 0 01-1.044-.027.528.528 0 10-.126 1.048c.392.047.807.059 1.233.033.39-.023.761.14.992.436 1.221 1.57 3.304 2.062 4.253 2.21v1.22H4.79v-1.22c.95-.148 3.032-.64 4.253-2.21.23-.296.603-.46.993-.436 1.906.112 3.42-.493 4.264-1.708a.534.534 0 00.03-.05c.025-.045.642-1.129 2.344-1.597a5.015 5.015 0 012.656 0c1.702.468 2.319 1.552 2.342 1.594.01.019.02.036.032.053.138.198.294.381.464.546a.528.528 0 10.734-.76 2.6 2.6 0 01-.317-.37c-.136-.233-.969-1.53-2.975-2.082a6.07 6.07 0 00-3.216 0c-2.006.552-2.839 1.848-2.975 2.082-.448.633-1.386 1.353-3.32 1.238a2.222 2.222 0 00-1.89.841c-.928 1.193-2.568 1.633-3.425 1.786v-.762a2.853 2.853 0 00.935-2.113 2.863 2.863 0 00-2.86-2.86A2.863 2.863 0 000 6.101c0 .836.36 1.59.935 2.113v23.187c0 1.061.864 1.925 1.925 1.925A1.927 1.927 0 004.785 31.4v-1h26.43v1c0 1.061.863 1.925 1.925 1.925a1.927 1.927 0 001.925-1.925V8.214A2.853 2.853 0 0036 6.101zm-32.271 25.3a.87.87 0 01-1.737 0V8.826a2.846 2.846 0 001.737 0V31.4zM2.86 7.905c-.995 0-1.803-.81-1.803-1.804 0-.995.809-1.804 1.803-1.804.995 0 1.804.81 1.804 1.804 0 .995-.81 1.804-1.804 1.804zm22.881 4.42h1.289v13.943h-1.29V12.325zm-3.243 0h2.187v9.8h-2.187v-9.8zm0 10.857h2.187v3.086h-2.187v-3.086zm-2.345-10.857h1.289v13.943h-1.29V12.325zm-3.243 0h2.186v9.8H16.91v-9.8zm0 10.857h2.186v3.086H16.91v-3.086zm-5.588-10.857h2.186v6.313a.528.528 0 101.057 0v-6.313h1.289v13.943h-1.29v-5.236a.528.528 0 00-1.056 0v1.094h-2.186v-9.8zm0 10.857h2.186v3.086h-2.186v-3.086zM8.976 12.325h1.29v13.943h-1.29V12.325zm-4.19 0H7.92v9.8H4.785v-9.8zM7.92 23.182v3.086H4.791v-3.086H7.92zm23.295 6.163H4.79v-2.02h26.424v2.02zm0-3.077h-3.129v-3.086h3.129v3.086zm0-4.142h-3.129v-9.8h3.129v9.8zM33.14 4.297a1.804 1.804 0 11-.002 3.606 1.804 1.804 0 01.002-3.606zm.868 27.104a.87.87 0 01-1.737 0V8.826a2.847 2.847 0 001.737 0V31.4z" fill="#333"/></g><defs><clipPath id="clip0"><path fill="#fff" d="M0 0h36v36H0z"/></clipPath></defs></svg>
